libs/icons/src/svg/partners-outline.svg

<svg width="16" height="16" viewBox="0 0 16 16" fill="none" xmlns="http://www.w3.org/2000/svg">
<g clip-path="url(#clip0_3_1692)">
<path fill-rule="evenodd" clip-rule="evenodd" d="M4.45167 8.43476C4.57553 8.59284 4.71012 8.74511 4.85461 8.88847C3.91663 9.05287 3.10091 9.28434 2.47035 9.49695C1.38559 9.86389 0.666687 10.8843 0.666687 12.0213V14.6667C0.666687 15.0349 0.965467 15.3333 1.33366 15.3333H8.00002C8.36821 15.3333 8.66669 15.0349 8.66669 14.6667C8.66669 14.2985 8.36797 14 7.99978 14H2.00002V12.0213C2.00002 11.4478 2.3616 10.9414 2.89667 10.7603C3.9515 10.4046 5.5465 10 7.33335 10C8.5247 10 9.53275 9.30555 10.215 8.43476C10.8993 7.56141 11.3334 6.41949 11.3334 5.33334V4.66667C11.3334 2.45782 9.54221 0.666672 7.33335 0.666672C5.1245 0.666672 3.33335 2.45782 3.33335 4.66667V5.33334C3.33335 6.41949 3.76737 7.56141 4.45167 8.43476ZM7.33335 2.00001C5.86088 2.00001 4.66669 3.1942 4.66669 4.66667V5.33334C4.66669 6.08786 4.979 6.94594 5.50121 7.61242C6.02542 8.28146 6.68404 8.66667 7.33335 8.66667C7.98267 8.66667 8.64129 8.28146 9.1655 7.61242C9.68771 6.94594 10 6.08786 10 5.33334V4.66667C10 3.1942 8.80583 2.00001 7.33335 2.00001ZM1.33335 14.6667C1.33335 15.3333 1.33366 15.3333 1.33366 15.3333L1.33335 14.6667Z" fill="#202327"/>
<path d="M13.6967 10.754L12.6667 8.66667L11.6367 10.754L9.33335 11.0887L11 12.7133L10.6067 15.0073L12.6667 13.924L14.7267 15.0073L14.3334 12.7133L16 11.0887L13.6967 10.754Z" fill="#202327"/>
</g>
<defs>
<clipPath id="clip0_3_1692">
<rect width="16" height="16" fill="white"/>
</clipPath>
</defs>
</svg>

<svg xmlns="http://www.w3.org/2000/svg" viewBox="0 0 16 16" class="sageicon"><path fill-rule="evenodd" d="M4.452 8.435c.123.158.258.31.403.453-.938.165-1.754.396-2.385.609A2.661 2.661 0 0 0 .667 12.02v2.646c0 .368.298.666.667.666H8A.667.667 0 1 0 8 14H2v-1.979c0-.573.362-1.08.897-1.26C3.95 10.404 5.547 10 7.333 10c1.192 0 2.2-.694 2.882-1.565.684-.874 1.118-2.016 1.118-3.102v-.666a4 4 0 0 0-8 0v.666c0 1.086.434 2.228 1.119 3.102ZM7.333 2a2.667 2.667 0 0 0-2.666 2.667v.666c0 .755.312 1.613.834 2.28.524.668 1.183 1.054 1.832 1.054.65 0 1.308-.386 1.832-1.055.523-.666.835-1.524.835-2.279v-.666A2.667 2.667 0 0 0 7.333 2Zm-6 12.667v.666-.666Z"/><path d="m13.697 10.754-1.03-2.087-1.03 2.087-2.304.335L11 12.713l-.393 2.294 2.06-1.083 2.06 1.083-.394-2.294L16 11.09l-2.303-.335Z"/></svg>
